lib/flags/m/152.svg

<svg xmlns="http://www.w3.org/2000/svg" fill="none" viewBox="0 0 20 15"><mask id="152_svg__a" width="20" height="15" x="0" y="0" mask-type="alpha" maskUnits="userSpaceOnUse"><path fill="#fff" d="M0 0H20V15H0z"/></mask><g fill-rule="evenodd" clip-rule="evenodd" mask="url(#152_svg__a)"><path fill="#3D58DB" d="M0 0H9V9H0V0Z"/><path fill="#F7FCFF" d="M8.75 -1.25H20V8.75H8.75V-1.25Z"/><path fill="#E31D1C" d="M0 8H20V15H0V8Z"/><path fill="#F7FCFF" d="M4.38398 5.61463L2.00669 7.03431L3.17992 4.61878L1.10236 3.0499L3.50078 3.02422L4.40559 0.882202L4.98817 3.02422L7.25831 3.03492L5.53167 4.5694L6.42828 7.03431L4.38398 5.61463Z"/></g></svg>

<svg xmlns="http://www.w3.org/2000/svg" fill="none" viewBox="0 0 20 15"><mask id="152_svg__a" width="20" height="15" x="0" y="0" maskUnits="userSpaceOnUse"><path fill="#fff" d="M0 0h20v15H0z"/></mask><g fill-rule="evenodd" clip-rule="evenodd" mask="url(#152_svg__a)"><path fill="#3D58DB" d="M0 0h9v9H0V0z"/><path fill="#F7FCFF" d="M8.75-1.25H20v10H8.75v-10z"/><path fill="#E31D1C" d="M0 8h20v7H0V8z"/><path fill="#F7FCFF" d="M4.384 5.615l-2.377 1.42L3.18 4.618l-2.078-1.57 2.399-.025.905-2.142.582 2.142 2.27.01L5.532 4.57l.896 2.465-2.044-1.42z"/></g></svg>
